image/values/icon-6.svg

<svg xmlns="http://www.w3.org/2000/svg" width="48" height="48" fill="none"><path fill="#2E2E2E" d="M38 45.5c-.82 0-1.5-.68-1.5-1.5V22c0-.82.68-1.5 1.5-1.5s1.5.68 1.5 1.5v22c0 .82-.68 1.5-1.5 1.5ZM38 15.5c-.82 0-1.5-.68-1.5-1.5V4c0-.82.68-1.5 1.5-1.5s1.5.68 1.5 1.5v10c0 .82-.68 1.5-1.5 1.5Z"/><path fill="#C63031" d="M24 45.5c-.82 0-1.5-.68-1.5-1.5V34c0-.82.68-1.5 1.5-1.5s1.5.68 1.5 1.5v10c0 .82-.68 1.5-1.5 1.5ZM24 27.5c-.82 0-1.5-.68-1.5-1.5V4c0-.82.68-1.5 1.5-1.5s1.5.68 1.5 1.5v22c0 .82-.68 1.5-1.5 1.5Z"/><path fill="#2E2E2E" d="M10 45.5c-.82 0-1.5-.68-1.5-1.5V22c0-.82.68-1.5 1.5-1.5s1.5.68 1.5 1.5v22c0 .82-.68 1.5-1.5 1.5ZM10 15.5c-.82 0-1.5-.68-1.5-1.5V4c0-.82.68-1.5 1.5-1.5s1.5.68 1.5 1.5v10c0 .82-.68 1.5-1.5 1.5Z"/><path fill="#2E2E2E" d="M14 23.5H6c-.82 0-1.5-.68-1.5-1.5s.68-1.5 1.5-1.5h8c.82 0 1.5.68 1.5 1.5s-.68 1.5-1.5 1.5ZM42 23.5h-8c-.82 0-1.5-.68-1.5-1.5s.68-1.5 1.5-1.5h8c.82 0 1.5.68 1.5 1.5s-.68 1.5-1.5 1.5Z"/><path fill="#C63031" d="M28 27.5h-8c-.82 0-1.5-.68-1.5-1.5s.68-1.5 1.5-1.5h8c.82 0 1.5.68 1.5 1.5s-.68 1.5-1.5 1.5Z"/></svg>

<svg width="48" height="48" viewBox="0 0 48 48" fill="none" xmlns="http://www.w3.org/2000/svg">
<path d="M38 45.5C37.18 45.5 36.5 44.82 36.5 44V22C36.5 21.18 37.18 20.5 38 20.5C38.82 20.5 39.5 21.18 39.5 22V44C39.5 44.82 38.82 45.5 38 45.5Z" fill="#2E2E2E"/>
<path d="M38 15.5C37.18 15.5 36.5 14.82 36.5 14V4C36.5 3.18 37.18 2.5 38 2.5C38.82 2.5 39.5 3.18 39.5 4V14C39.5 14.82 38.82 15.5 38 15.5Z" fill="#2E2E2E"/>
<path d="M24 45.5C23.18 45.5 22.5 44.82 22.5 44V34C22.5 33.18 23.18 32.5 24 32.5C24.82 32.5 25.5 33.18 25.5 34V44C25.5 44.82 24.82 45.5 24 45.5Z" fill="#C63031"/>
<path d="M24 27.5C23.18 27.5 22.5 26.82 22.5 26V4C22.5 3.18 23.18 2.5 24 2.5C24.82 2.5 25.5 3.18 25.5 4V26C25.5 26.82 24.82 27.5 24 27.5Z" fill="#C63031"/>
<path d="M10 45.5C9.18 45.5 8.5 44.82 8.5 44V22C8.5 21.18 9.18 20.5 10 20.5C10.82 20.5 11.5 21.18 11.5 22V44C11.5 44.82 10.82 45.5 10 45.5Z" fill="#2E2E2E"/>
<path d="M10 15.5C9.18 15.5 8.5 14.82 8.5 14V4C8.5 3.18 9.18 2.5 10 2.5C10.82 2.5 11.5 3.18 11.5 4V14C11.5 14.82 10.82 15.5 10 15.5Z" fill="#2E2E2E"/>
<path d="M14 23.5H6C5.18 23.5 4.5 22.82 4.5 22C4.5 21.18 5.18 20.5 6 20.5H14C14.82 20.5 15.5 21.18 15.5 22C15.5 22.82 14.82 23.5 14 23.5Z" fill="#2E2E2E"/>
<path d="M42 23.5H34C33.18 23.5 32.5 22.82 32.5 22C32.5 21.18 33.18 20.5 34 20.5H42C42.82 20.5 43.5 21.18 43.5 22C43.5 22.82 42.82 23.5 42 23.5Z" fill="#2E2E2E"/>
<path d="M28 27.5H20C19.18 27.5 18.5 26.82 18.5 26C18.5 25.18 19.18 24.5 20 24.5H28C28.82 24.5 29.5 25.18 29.5 26C29.5 26.82 28.82 27.5 28 27.5Z" fill="#C63031"/>
</svg>
